src/img/icons/address-book.svg

<svg xmlns="http://www.w3.org/2000/svg" xmlns:xlink="http://www.w3.org/1999/xlink" width="384pt" height="384pt" version="1.1" viewBox="0 0 384 384"> <defs> <filter id="alpha" width="100%" height="100%" x="0%" y="0%" filterUnits="objectBoundingBox"> <feColorMatrix in="SourceGraphic" type="matrix" values="0 0 0 0 1 0 0 0 0 1 0 0 0 0 1 0 0 0 1 0"/> </filter> <mask id="mask0"> <g filter="url(#alpha)"> <rect width="384" height="384" x="0" y="0" style="fill:rgb(0%,0%,0%);fill-opacity:0.301961"/> </g> </mask> <clipPath id="clip1"> <rect width="384" height="384" x="0" y="0"/> </clipPath> <g id="surface5" clip-path="url(#clip1)"> <path style="fill:rgb(0%,0%,0%)" d="M 54.246094 315.988281 L 54.246094 350.359375 C 54.246094 354.746094 57.035156 358.449219 60.941406 359.832031 C 60.945312 359.832031 60.949219 359.835938 60.953125 359.835938 C 61.195312 359.921875 61.441406 359.996094 61.691406 360.0625 C 61.742188 360.078125 61.792969 360.089844 61.839844 360.101562 C 62.0625 360.160156 62.285156 360.207031 62.511719 360.25 C 62.632812 360.273438 62.753906 360.289062 62.878906 360.304688 C 63.042969 360.328125 63.207031 360.355469 63.375 360.371094 C 63.6875 360.402344 64.003906 360.421875 64.324219 360.421875 L 319.671875 360.421875 C 322.464844 360.421875 324.984375 359.300781 326.808594 357.480469 C 328.628906 355.664062 329.753906 353.148438 329.753906 350.359375 L 329.753906 343.488281 C 329.753906 349.058594 325.257812 353.546875 319.671875 353.546875 L 64.324219 353.546875 C 63.136719 353.546875 62 353.332031 60.941406 352.957031 L 60.941406 339.210938 C 62 339.585938 63.136719 339.796875 64.324219 339.796875 L 319.675781 339.796875 C 325.257812 339.796875 329.753906 335.3125 329.753906 329.738281 L 329.753906 315.988281 C 329.753906 321.5625 325.257812 326.050781 319.675781 326.050781 L 64.324219 326.050781 C 58.742188 326.050781 54.246094 321.5625 54.246094 315.988281 Z M 64.257812 332.917969 C 66.332031 332.921875 68.421875 332.921875 70.5 332.921875 L 64.324219 332.921875 C 64.300781 332.921875 64.28125 332.917969 64.257812 332.917969 Z M 64.257812 332.917969"/> </g> <mask id="mask1"> <g filter="url(#alpha)"> <rect width="384" height="384" x="0" y="0" style="fill:rgb(0%,0%,0%);fill-opacity:0.301961"/> </g> </mask> <clipPath id="clip2"> <rect width="384" height="384" x="0" y="0"/> </clipPath> <g id="surface8" clip-path="url(#clip2)"> <path style="fill:rgb(100.000%,100.000%,100.000%)" d="M 64.324219 23.578125 C 58.742188 23.578125 54.246094 28.066406 54.246094 33.640625 L 54.246094 40.511719 C 54.246094 34.941406 58.742188 30.453125 64.324219 30.453125 L 319.675781 30.453125 C 325.257812 30.453125 329.753906 34.941406 329.753906 40.511719 L 329.753906 33.640625 C 329.753906 28.066406 325.257812 23.578125 319.675781 23.578125 Z M 64.324219 23.578125"/> </g> </defs> <g> <path style="fill:rgb(74.117%,59.215%,46.666%)" d="M 64.328125 51.074219 L 319.679688 51.074219 C 325.246094 51.074219 329.757812 55.578125 329.757812 61.132812 L 329.757812 350.355469 C 329.757812 355.914062 325.246094 360.417969 319.679688 360.417969 L 64.328125 360.417969 C 58.761719 360.417969 54.246094 355.914062 54.246094 350.355469 L 54.246094 61.132812 C 54.246094 55.578125 58.761719 51.074219 64.328125 51.074219 Z M 64.328125 51.074219"/> <path style="fill:rgb(74.117%,59.215%,46.666%)" d="M 64.324219 23.578125 L 319.675781 23.578125 C 325.242188 23.578125 329.753906 28.082031 329.753906 33.640625 L 329.753906 322.863281 C 329.753906 328.417969 325.242188 332.921875 319.675781 332.921875 L 64.324219 332.921875 C 58.757812 332.921875 54.246094 328.417969 54.246094 322.863281 L 54.246094 33.640625 C 54.246094 28.082031 58.757812 23.578125 64.324219 23.578125 Z M 64.324219 23.578125"/> <path style="fill:rgb(40.784%,29.803%,20.784%)" d="M 64.324219 23.578125 C 58.742188 23.578125 54.246094 28.066406 54.246094 33.640625 L 54.246094 350.359375 C 54.246094 355.863281 58.628906 360.296875 64.113281 360.410156 L 99.199219 360.410156 L 99.199219 23.578125 Z M 64.324219 23.578125"/> <path style="fill:rgb(100.000%,100.000%,100.000%)" d="M 329.753906 322.863281 C 329.753906 328.4375 325.257812 332.921875 319.675781 332.921875 L 64.324219 332.921875 C 63.136719 332.921875 62 332.710938 60.941406 332.335938 L 60.941406 352.957031 C 62 353.332031 63.136719 353.546875 64.324219 353.546875 L 319.671875 353.546875 C 325.257812 353.546875 329.753906 349.058594 329.753906 343.484375 Z M 329.753906 322.863281"/> <use mask="url(#mask0)" xlink:href="#surface5"/> <path style="fill:rgb(40.784%,29.803%,20.784%)" d="M 212.644531 92.582031 C 208.914062 92.582031 205.1875 92.695312 203.027344 92.925781 C 198.34375 93.421875 191.40625 94.828125 186.8125 96.21875 C 152.957031 106.460938 128.128906 136.375 124.414062 171.402344 C 123.953125 175.714844 123.953125 186.285156 124.414062 190.597656 C 124.910156 195.277344 126.320312 202.203125 127.710938 206.785156 C 133.683594 226.453125 146.378906 243.394531 163.824219 254.972656 C 175.054688 262.425781 188.101562 267.242188 201.570312 268.90625 C 206.042969 269.460938 217.722656 269.554688 222.257812 269.078125 C 226.945312 268.582031 233.882812 267.171875 238.472656 265.785156 C 269.628906 256.355469 293.359375 230.222656 299.632812 198.433594 C 300.867188 192.183594 301.230469 188.222656 301.230469 181 C 301.230469 171.390625 300.128906 163.632812 297.574219 155.214844 C 293.457031 141.664062 286.363281 129.699219 276.332031 119.386719 C 261.75 104.394531 242.738281 95.089844 222.257812 92.925781 C 220.097656 92.695312 216.371094 92.582031 212.644531 92.582031 Z M 212.644531 99.988281 C 216.96875 99.988281 221.292969 100.203125 224.0625 100.632812 C 251.171875 104.851562 273.460938 120.996094 285.453125 145.097656 C 289.234375 152.691406 291.773438 160.769531 293.152344 169.601562 C 294.011719 175.105469 294.015625 186.859375 293.15625 192.398438 C 291.035156 206.101562 285.820312 218.707031 277.882812 229.308594 C 274.773438 233.464844 269.234375 239.621094 268.351562 239.898438 C 267.914062 240.039062 266.707031 239.515625 264.738281 238.332031 C 261.875 236.613281 257.523438 234.652344 246.058594 229.914062 C 237.289062 226.292969 233.277344 223.519531 231.144531 219.605469 C 230.164062 217.808594 230.152344 217.714844 230.003906 210.765625 L 229.855469 203.746094 L 231.082031 202.476562 C 233.523438 199.949219 236.3125 194.070312 237.386719 189.191406 C 237.949219 186.640625 238.046875 186.46875 239.304688 185.828125 C 242.210938 184.347656 243.960938 180.308594 243.960938 175.070312 C 243.960938 171.832031 243.925781 171.683594 242.785156 170.066406 C 241.671875 168.488281 241.632812 168.332031 242.011719 167.015625 C 244.738281 157.535156 245.625 147.359375 244.328125 140.410156 C 243.121094 133.949219 239.671875 129.011719 234.699219 126.625 C 233.320312 125.960938 231.492188 125.308594 230.636719 125.175781 C 229.425781 124.980469 228.773438 124.605469 227.695312 123.46875 C 224.453125 120.046875 220.160156 118.710938 212.46875 118.726562 C 197.476562 118.753906 187.511719 124.273438 183.34375 134.859375 C 180.316406 142.550781 180.289062 152.828125 183.269531 166.492188 C 183.679688 168.378906 183.675781 168.40625 182.503906 170.0625 C 181.363281 171.683594 181.328125 171.832031 181.328125 175.070312 C 181.328125 180.316406 183.074219 184.347656 185.992188 185.832031 C 187.207031 186.449219 187.367188 186.703125 187.738281 188.507812 C 188.703125 193.207031 190.800781 197.851562 193.652344 201.601562 L 195.453125 203.972656 L 195.414062 210.949219 C 195.371094 218.628906 195.324219 218.84375 193.027344 221.671875 C 190.433594 224.871094 186.296875 227.152344 174.203125 232.070312 C 167.648438 234.734375 160.972656 237.898438 158.832031 239.359375 C 158.261719 239.746094 157.5625 240.066406 157.277344 240.066406 C 156.992188 240.070312 155.617188 238.867188 154.222656 237.394531 C 142.171875 224.667969 134.84375 209.738281 132.136719 192.398438 C 131.273438 186.871094 131.273438 175.128906 132.136719 169.601562 C 136.363281 142.539062 152.535156 120.289062 176.675781 108.316406 C 184.285156 104.542969 192.378906 102.007812 201.222656 100.632812 C 203.992188 100.203125 208.316406 99.988281 212.644531 99.988281 Z M 212.644531 99.988281"/> <use mask="url(#mask1)" xlink:href="#surface8"/> </g> </svg>

<svg width="512" height="512" version="1.1" viewBox="0 0 384 384" xmlns="http://www.w3.org/2000/svg"><defs><clipPath><rect width="384" height="384"/></clipPath><clipPath><rect width="384" height="384"/></clipPath></defs><path d="m64.328 51.074h255.35c5.5664 0 10.078 4.5039 10.078 10.059v289.22c0 5.5586-4.5117 10.062-10.078 10.062h-255.35c-5.5664 0-10.082-4.5039-10.082-10.062v-289.22c0-5.5547 4.5156-10.059 10.082-10.059z" fill="#bd9775"/><path d="m64.324 23.578h255.35c5.5664 0 10.078 4.5039 10.078 10.062v289.22c0 5.5547-4.5117 10.059-10.078 10.059h-255.35c-5.5664 0-10.078-4.5039-10.078-10.059v-289.22c0-5.5586 4.5117-10.062 10.078-10.062z" fill="#bd9775"/><path d="m64.324 23.578c-5.582 0-10.078 4.4883-10.078 10.062v316.72c0 5.5039 4.3828 9.9375 9.8672 10.051h35.086v-336.83z" fill="#664a33"/><path d="m329.75 322.86c0 5.5742-4.4961 10.059-10.078 10.059h-255.35c-1.1875 0-2.3242-0.21093-3.3828-0.58593v20.621c1.0586 0.375 2.1953 0.58984 3.3828 0.58984h255.35c5.5859 0 10.082-4.4883 10.082-10.062z" fill="#fff"/><path d="m212.64 92.582c-3.7305 0-7.457 0.11328-9.6172 0.34375-4.6836 0.49609-11.621 1.9023-16.215 3.293-33.855 10.242-58.684 40.156-62.398 75.184-0.46093 4.3125-0.46093 14.883 0 19.195 0.4961 4.6797 1.9062 11.605 3.2969 16.188 5.9726 19.668 18.668 36.609 36.113 48.188 11.23 7.4531 24.277 12.27 37.746 13.934 4.4727 0.55469 16.152 0.64844 20.688 0.17187 4.6875-0.49609 11.625-1.9062 16.215-3.293 31.156-9.4297 54.887-35.562 61.16-67.352 1.2344-6.25 1.5977-10.211 1.5977-17.434 0-9.6094-1.1016-17.367-3.6562-25.785-4.1172-13.551-11.211-25.516-21.242-35.828-14.582-14.992-33.594-24.297-54.074-26.461-2.1602-0.23047-5.8867-0.34375-9.6133-0.34375zm0 7.4062c4.3242 0 8.6484 0.21485 11.418 0.64453 27.109 4.2188 49.398 20.363 61.391 44.465 3.7812 7.5938 6.3203 15.672 7.6992 24.504 0.85938 5.5039 0.86328 17.258 4e-3 22.797-2.1211 13.703-7.3359 26.309-15.273 36.91-3.1094 4.1562-8.6484 10.312-9.5312 10.59-0.4375 0.14062-1.6445-0.38282-3.6133-1.5664-2.8633-1.7188-7.2148-3.6797-18.68-8.418-8.7695-3.6211-12.781-6.3945-14.914-10.309-0.98047-1.7969-0.99219-1.8906-1.1406-8.8398l-0.14844-7.0195 1.2266-1.2695c2.4414-2.5273 5.2305-8.4062 6.3047-13.285 0.5625-2.5508 0.66015-2.7227 1.918-3.3633 2.9062-1.4805 4.6562-5.5195 4.6562-10.758 0-3.2383-0.0352-3.3867-1.1758-5.0039-1.1133-1.5781-1.1524-1.7344-0.77344-3.0508 2.7266-9.4805 3.6133-19.656 2.3164-26.605-1.207-6.4609-4.6562-11.398-9.6289-13.785-1.3789-0.66406-3.207-1.3164-4.0625-1.4492-1.2109-0.19531-1.8633-0.57031-2.9414-1.707-3.2422-3.4219-7.5352-4.7578-15.227-4.7422-14.992 0.0273-24.957 5.5469-29.125 16.133-3.0273 7.6914-3.0547 17.969-0.0742 31.633 0.41016 1.8867 0.40625 1.9141-0.76562 3.5703-1.1406 1.6211-1.1758 1.7695-1.1758 5.0078 0 5.2461 1.7461 9.2774 4.6641 10.762 1.2148 0.61719 1.375 0.87109 1.7461 2.6758 0.96484 4.6992 3.0625 9.3438 5.9141 13.094l1.8008 2.3711-0.0391 6.9766c-0.043 7.6797-0.0898 7.8945-2.3867 10.723-2.5938 3.1992-6.7305 5.4805-18.824 10.398-6.5547 2.6641-13.23 5.8281-15.371 7.2891-0.57031 0.38672-1.2695 0.70704-1.5547 0.70704-0.28515 4e-3 -1.6602-1.1992-3.0547-2.6719-12.051-12.727-19.379-27.656-22.086-44.996-0.86328-5.5274-0.86328-17.27 0-22.797 4.2266-27.062 20.398-49.312 44.539-61.285 7.6094-3.7734 15.703-6.3086 24.547-7.6836 2.7695-0.42968 7.0938-0.64453 11.422-0.64453z" fill="#664a33"/><path transform="scale(.75)" d="m72.328 420.48v10c0 0.0633 0.0089 0.1244 0.0098 0.1875l-0.0078 26.473 8.9251 13.465-0.0072-27.506c1.4137 0.50443 2.9301 0.79296 4.5176 0.79296h340.47c7.4219 0 13.438-6.0058 13.438-13.412v-10c0 7.4062-6.0156 13.412-13.438 13.412h-340.47c-7.4219 0-13.438-6.0058-13.438-13.412zm2e-3 36.66v10c0 7.4062 6.0156 13.412 13.438 13.412h340.47c7.4219 0 13.438-6.0059 13.438-13.412v-10c0 7.4062-6.0156 14.336-13.438 14.336h-340.47c-1.5391 0-3.1353-0.33269-4.5124-0.8711z" opacity=".3" stroke-width="1.3333"/><path transform="scale(.75)" d="m85.766 31.438c-7.4219 0-13.438 6.0046-13.438 13.416v10c0-7.4115 6.0156-13.416 13.438-13.416h340.47c7.4219 0 13.438 6.0046 13.438 13.416v-10c0-7.4115-6.0156-13.416-13.438-13.416z" fill="#fff" opacity=".3" stroke-width="1.3333"/></svg>
